elements/rpg-character/lib/shirt/1.svg

<svg xmlns="http://www.w3.org/2000/svg" fill="none" width="113" height="142" viewBox="0 0 113 142"><path d="M28 97V87h5v10h-5Zm10-10v27h5v-1h1v-1h3v1h1v1h5v-1h1v-1h3v1h1v1h5v-1h1v-1h3v1h1v1h5V87h-9v4h-1v1h-3v2h-2v2H48v-2h-2v-2h-2v-1h-1v-4h-5Zm45 10h-5v-5h5v5Z" fill="#F3F7F9"/><path d="M42 109v3h1v-1h5v1h1v-3h-1v-3h-5v3h-1Zm11 3h-1v-3h1v-3h5v3h1v3h-1v-1h-5v1Zm10 0h-1v-3h1v-3h5v3h1V88h4v25h-4v-1h-1v-1h-5v1Z" fill="#EFF3F4"/><path d="M42 88h-4v-1h5v4h1v1h2v2h2v2h10v-2h2v-2h3v-1h1v-4h9v1h-8v4h-1v1h-3v2h-2v2H47v-2h-2v-2h-2v-1h-1v-4Zm36 8v1h5v-1h-5Zm-50 0v1h5v-1h-5Zm10 17h4v-1h1v-1h5v1h1v1h3v-1h1v-1h5v1h1v1h3v-1h1v-1h5v1h1v1h4v1h-5v-1h-1v-1h-3v1h-1v1h-5v-1h-1v-1h-3v1h-1v1h-5v-1h-1v-1h-3v1h-1v1h-5v-1Z" fill="#D7E2E2"/><path d="M46 87v3h1v1h1v1h1v1h5v-1h3v-1h2v-1h1v-3" stroke="#C8BE9B"/><path d="M51 94v-1h1v1h-1Z" stroke="#A7D7AC"/></svg>

<svg width="113" height="142" viewBox="0 0 113 142" fill="none" xmlns="http://www.w3.org/2000/svg">
<path d="M28 97V87H33V97H28Z" fill="#F3F7F9"/>
<path d="M38 87V113V114H39H43V113H44V112H47V113H48V114H53V113H54V112H57V113H58V114H63V113H64V112H67V113H68V114H73V87H68H64V91H63V92H60V94H58V96H48V94H46V92H44V91H43V87H38Z" fill="#F3F7F9"/>
<path d="M83 97H78V92H83V97Z" fill="#F3F7F9"/>
<path d="M42 109V112H43V111H48V112H49V109H48V106H43V109H42Z" fill="#EFF3F4"/>
<path d="M53 112H52V109H53V106H58V109H59V112H58V111H53V112Z" fill="#EFF3F4"/>
<path d="M63 112H62V109H63V106H68V109H69V88H73V113H69V112H68V111H63V112Z" fill="#EFF3F4"/>
<path d="M42 88H38V87H43V91H44V92H46V94H48V96H58V94H60V92H63V91H64V87H73V88H65V92H64V93H63H61V95H59V97H47V95H45V93H43V92H42V88Z" fill="#D7E2E2"/>
<path d="M78 96V97H83V96H78Z" fill="#D7E2E2"/>
<path d="M28 96V97H33V96H28Z" fill="#D7E2E2"/>
<path d="M38 113H42V112H43V111H48V112H49V113H52V112H53V111H58V112H59V113H62V112H63V111H68V112H69V113H73V114H68V113H67V112H64V113H63V114H58V113H57V112H54V113H53V114H48V113H47V112H44V113H43V114H38V113Z" fill="#D7E2E2"/>
<path d="M46 87V90H47V91H48V92H49V93H50.5H52.5H54V92H55H57V91H59V90H60V89V87" stroke="#C8BE9B"/>
<path d="M51 94V93H52V94H51Z" stroke="#A7D7AC"/>
</svg>
